packages/vibrant-icons/assets/icons/PinSlash/Thin.svg

<svg width="24" height="24" viewBox="0 0 24 24" fill="none" xmlns="http://www.w3.org/2000/svg">
<path fill-rule="evenodd" clip-rule="evenodd" d="M2.77775 1.57566C2.68012 1.47803 2.52182 1.47803 2.42419 1.57566L1.57566 2.42419C1.47803 2.52182 1.47803 2.68012 1.57566 2.77775L21.2221 22.4242C21.3197 22.5218 21.478 22.5218 21.5757 22.4242L22.4242 21.5757C22.5218 21.478 22.5218 21.3197 22.4242 21.2221L17.702 16.5H20.75C20.9 16.5 21 16.4 21 16.25V16.15L17.5 9.64996C17.45 9.59996 17.45 9.49996 17.45 9.39996V2.24996C17.45 2.09996 17.35 1.99996 17.2 1.99996H6.84996C6.69996 1.99996 6.59996 2.09996 6.59996 2.24996V5.39788L2.77775 1.57566ZM8.29996 7.09788L15.902 14.7H18.15L15.85 10.4C15.7 10.1 15.6 9.69996 15.6 9.34996V3.74996H8.29996V7.09788Z" fill="#0C0C0C"/>
<path d="M3.04996 16.1L6.3566 9.95907L7.63092 11.2334L5.77671 14.7H11.0975L12.9 16.5024V21.7C12.9 21.7732 12.8732 21.8196 12.8392 21.8784C12.8268 21.9 12.8134 21.9232 12.8 21.95L12.2 22.9C12.15 22.95 12.05 23 12 23C11.95 23 11.85 23 11.8 22.9L11.2 21.95C11.15 21.9 11.1 21.8 11.1 21.7V16.5H3.24996C3.09996 16.5 2.99996 16.4 2.99996 16.25C2.99996 16.2 2.99996 16.15 3.04996 16.1Z" fill="#0C0C0C"/>
</svg>

<svg xmlns="http://www.w3.org/2000/svg" width="24" height="24" fill="none"><path fill="#0C0C0C" fill-rule="evenodd" d="M2.778 1.576a.25.25 0 0 0-.354 0l-.848.848a.25.25 0 0 0 0 .354l19.646 19.646a.25.25 0 0 0 .354 0l.848-.848a.25.25 0 0 0 0-.354L17.702 16.5h3.048c.15 0 .25-.1.25-.25v-.1l-3.5-6.5c-.05-.05-.05-.15-.05-.25V2.25c0-.15-.1-.25-.25-.25H6.85c-.15 0-.25.1-.25.25v3.148zM8.3 7.098l7.602 7.602h2.248l-2.3-4.3c-.15-.3-.25-.7-.25-1.05v-5.6H8.3z" clip-rule="evenodd"/><path fill="#0C0C0C" d="m3.05 16.1 3.307-6.14 1.274 1.273L5.777 14.7h5.32l1.803 1.802V21.7c0 .073-.027.12-.06.178q-.02.032-.04.072l-.6.95a.4.4 0 0 1-.2.1c-.05 0-.15 0-.2-.1l-.6-.95a.38.38 0 0 1-.1-.25v-5.2H3.25c-.15 0-.25-.1-.25-.25 0-.05 0-.1.05-.15"/></svg>
